X:11
T:The Morgan Rattler
C:Trad., Irish
S:Petrie's Collection of Strathspey Reels and Country Dances &c., 1790
Z:Steve Wyrick , 2/28/04
N:Petrie's First Collection, page 5
L:1/8
M:6/8
R:Jig
K:D
B|: AGF  EFG|TFEF  D2B| AGF  EFA|TB2A Bcd |
    AGF  EFG|TFEF  D2A| def  edc|TB2A Bcd:|
 |: d2e  fed| c2d  edc| d2e  fed|Tf2e fga |
    d2e  fed| c2d  efg| afd  ecA|TB2A Bcd:|
 |: D2d Tdcd| E2e Tede| D2d Tdcd|TB2A Bcd |
    D2d Tdcd| E2e  efg| afd  ecA|TB2A Bcd:|
 |:TF3   AFD|TEFE TEDE|TF3   AFD| B2A Bcd |
   TFEF  AFD| EFE  E2c| dfd  cec|TB2A Bcd:|
